main/svg/diagonalChecksTopLeftBottomRight.svg

<svg xmlns="http://www.w3.org/2000/svg" width="32" height="32"><path d="m2.004 9 6.992 7 7-7L9 2.004 2.004 9M16 22.996l6.996 7 7-7-7-6.996L16 22.996m16-12V7l-2.004 2.004L32 10.996M0 25v-4l2.004 2L0 25M21 0h4l-2.004 2.004L21 0M7 32h3.996L9 29.996 7 32M0 0v2.004L2.004 0Zm32 32v-2.004L29.996 32Zm0 0" style="stroke:none;fill-rule:nonzero;fill:#000;fill-opacity:1"/></svg>

<svg xmlns="http://www.w3.org/2000/svg" width="32" height="32"><path d="m2 9 7 7 7-7-7-7-7 7m14 14 7 7 7-7-7-7-7 7m16-12V7l-2 2 2 2M0 25v-4l2 2-2 2M21 0h4l-2 2-2-2M7 32h4l-2-2-2 2M0 0v2l2-2Zm32 32v-2l-2 2Zm0 0" style="stroke:none;fill-rule:nonzero;fill:#000;fill-opacity:1"/></svg>
